icons/presentation.svg

<svg xmlns="http://www.w3.org/2000/svg" viewBox="0 0 24 24" fill="currentColor">
  <path d="M3.5 3.25c-.41421 0-.75.33579-.75.75s.33579.75.75.75h.85001v7.65c0 1.3142 1.03578 2.35 2.35 2.35H11.25v1.875L7.55 19.4c-.33137.2485-.39853.7186-.15 1.05.24853.3314.71863.3985 1.05.15l2.8-2.1V20c0 .4142.3358.75.75.75s.75-.3358.75-.75v-1.5l2.8 2.1c.3314.2485.8015.1814 1.05-.15.2485-.3314.1814-.8015-.15-1.05l-3.7-2.775V14.75h4.45c1.3582 0 2.3079-1.1668 2.4442-2.257l.0058-.0463V4.75h.85c.4142 0 .75-.33579.75-.75s-.3358-.75-.75-.75h-17Zm13.7 10H6.70001c-.48579 0-.85-.3642-.85-.85V4.75H18.15v7.5968c-.0815.4924-.5198.9032-.95.9032Z"/>
</svg>

<svg width="24" height="24" viewBox="0 0 24 24" fill="none" xmlns="http://www.w3.org/2000/svg">
<path fill-rule="evenodd" clip-rule="evenodd" d="M3.5 3.25C3.08579 3.25 2.75 3.58579 2.75 4C2.75 4.41421 3.08579 4.75 3.5 4.75H4.35001V12.4C4.35001 13.7142 5.38579 14.75 6.70001 14.75H11.25V16.625L7.55 19.4C7.21863 19.6485 7.15147 20.1186 7.4 20.45C7.64853 20.7814 8.11863 20.8485 8.45 20.6L11.25 18.5V20C11.25 20.4142 11.5858 20.75 12 20.75C12.4142 20.75 12.75 20.4142 12.75 20V18.5L15.55 20.6C15.8814 20.8485 16.3515 20.7814 16.6 20.45C16.8485 20.1186 16.7814 19.6485 16.45 19.4L12.75 16.625V14.75H17.2C18.5582 14.75 19.5079 13.5832 19.6442 12.493L19.65 12.4467V4.75H20.5C20.9142 4.75 21.25 4.41421 21.25 4C21.25 3.58579 20.9142 3.25 20.5 3.25H19.65H4.35001H3.5ZM17.2 13.25H12H6.70001C6.21422 13.25 5.85001 12.8858 5.85001 12.4V4.75H18.15V12.3468C18.0685 12.8392 17.6302 13.25 17.2 13.25Z" fill="black"/>
</svg>
